X:1
T:Praeludium
T:Praeludium
T:(Prelude) BWV 936
T:Johann Sebastian Bach
C:Johann Sebastian Bach
%%score 1 2 3
L:1/8
M:2/4
K:D
V:1 treble 
V:2 treble 
V:3 bass 
V:1
 A2 d2- | dc/d/ eG | MGF z d | FE z c | ED z B | DC z A | B,C D2- | DC/D/ E/D/C/D/ | %8
 E/D/C/B,/ A,/G,/F,/E,/ | F, F/G/ A/G/F/G/ | A/G/F/E/ D/=C/B,/A,/ | B,/D/E/F/ G/B/^c/d/ | %12
 e/G/F/E/ F/e/d/c/ | d/F/^G/A/ G/d/c/B/ | c/A/B/c/ D/c/B/A/ | ^G/E/F/G/ x2 | e2 a2- | a^g/a/ bd | %18
 ce d/c/B/A/ | A4 :: A2 e2- | ef/=g/ a/g/f/e/ | f4- | f4 | g2 f2- | fe/^d/ e2- | ea/b/ a/g/f/e/ | %27
 e ^d2 e/f/ | gf/g/ a/g/f/a/ | g/f/e/g/ f/e/^d/f/ | e4- | e4- | e f2 e- | e^deg | x4 | x4 | z4 | %37
 e4- | e2 =g2- | gf/e/ f/a/g/b/ | x4 | x4 | x4 | x4 | a2 d'2- | d'c'/d'/ e'g | fa g/f/e/d/ | d4 :| %48
V:2
 F4 | E4- | E2 D2- | D2 C2- | C2 B,2- | B,2 A,2- | A,2 ^G,2 | A,4- | A, x2 x | x4 | x4 | x4 | x4 | %13
 x4 | x4 | x2 A/B/c/d/ | c4 | B4- | B A2 ^G | z/ E/C- C2 :: z4 | z4 | D2 A2- | AB/=c/ d/c/B/A/ | %24
 B2 A2 | G3 A/B/ | =c4- | c2 B2- | B4- | B4- | BB/=c/ =d/c/B/d/ | =c/B/A/c/ B/A/^G/B/ | A2 =G2 | %33
 F2 E z | A/g/f/a/ g/f/e/^d/ | e3 z | b2 =d2- | d^c/B/ c/A/^G/B/ | A4- | A2 z2 | %40
 a/=c/B/A/ B/a/g/f/ | g/B/^c/d/ c/g/f/e/ | f/d/e/f/ G/f/e/d/ | c/A/B/c/ d/e/f/g/ | f4 | e4- | %46
 e d2 c | z/ A/F- F2 :| %48
V:3
 D,E,F,G, | A,B,CA, | DCB,A, | G,E,A,G, | F,B,^G,E, | A,^G,F,E, | D,C,B,,E, | A,,B,,C,B,, | %8
 A,,B,,C,A,, | D,E,F,E, | D,E,F,D, | G,F,E,D, | C,B,,^A,,F,, | B,,E,,E,^G, | A,^G,F,D, | %15
 E,D,C,B,, | A,,B,,C,D, | E,F,^G,E, | A,C,D,E, | A,,>E, A,2 :: A,B,A,=G, | F,E,F,A, | D,E,D,=C, | %23
 B,,A,,B,,D, | G,,G,A,B, | =C=C,CB, | A,F,G,A, | B,A,G,F, | E,EB,^D | EG,A,F, | G,E^G,E | A,=CDB, | %32
 =C/B,/A,/C/ B,/A,/=G,/B,/ | A,/G,/F,/A,/ G,/F,/E,/=D,/ | =C,/B,,/A,,/C,/ B,,2 | %35
 E,2- E,/^D,/E,/F,/ | ^G,B,G,E, | A, A,,2 B,, | ^C,E,C,A,, | D, D,,2 E, | F,E,^D,B,, | E,A,,A,C | %42
 DCB,G, | A,G,F,E, | D,E,F,G, | A,B,CA, | DF,G,A, | D,>A, D2 :| %48

